actions/scalable/document-edit-decrypt.svg

<svg height="22" viewBox="0 0 22 22" width="22" xmlns="http://www.w3.org/2000/svg" xmlns:sodipodi="http://sodipodi.sourceforge.net/DTD/sodipodi-0.dtd" xmlns:inkscape="http://www.inkscape.org/namespaces/inkscape">
 <path d="m4 2.998v0.002 2h2v-2h2v2h2v-2h2v2h2v-2h2v2h2v-2-0.002h-1-12-1zm2 3.002v2h2v-2h-2zm4 0v2h2v-2h-2zm4 0v2h2v-2h-2zm-10 3v2 8h1 8 1v-0.01l0.008 0.01 3.992-3.992v-0.01-1.406-2.592-2h-2v2h1v3h-4v1 3h-8v-7h1v-2h-2zm4 0v2h2v-2h-2zm4 0v2h2v-2h-2z" fill="#4d4d4d" transform="matrix(1 0 0 1 0 0)"/>
</svg>

<?xml version="1.0" encoding="UTF-8" standalone="no"?>
<!-- Created with Inkscape (http://www.inkscape.org/) -->

<svg
   xmlns:dc="http://purl.org/dc/elements/1.1/"
   xmlns:cc="http://creativecommons.org/ns#"
   xmlns:rdf="http://www.w3.org/1999/02/22-rdf-syntax-ns#"
   xmlns:svg="http://www.w3.org/2000/svg"
   xmlns="http://www.w3.org/2000/svg"
   xmlns:sodipodi="http://sodipodi.sourceforge.net/DTD/sodipodi-0.dtd"
   xmlns:inkscape="http://www.inkscape.org/namespaces/inkscape"
   width="22"
   height="22"
   id="svg2"
   version="1.1"
   inkscape:version="0.48+devel r"
   viewBox="0 0 22 22"
   sodipodi:docname="document-edit-decrypt.svg">
  <defs
     id="defs4" />
  <sodipodi:namedview
     id="base"
     pagecolor="#ffffff"
     bordercolor="#666666"
     borderopacity="1.0"
     inkscape:pageopacity="0.0"
     inkscape:pageshadow="2"
     inkscape:zoom="22.837499"
     inkscape:cx="14.47454"
     inkscape:cy="14.381038"
     inkscape:document-units="px"
     inkscape:current-layer="layer1"
     showgrid="true"
     inkscape:showpageshadow="false"
     borderlayer="true"
     inkscape:window-width="1366"
     inkscape:window-height="668"
     inkscape:window-x="-2"
     inkscape:window-y="23"
     inkscape:window-maximized="1"
     units="px">
    <sodipodi:guide
       position="2,20.000017"
       orientation="18,0"
       id="guide4085" />
    <sodipodi:guide
       position="2,2.0000174"
       orientation="0,18"
       id="guide4087" />
    <sodipodi:guide
       position="20,2.0000174"
       orientation="-18,0"
       id="guide4089" />
    <sodipodi:guide
       position="20,20.000017"
       orientation="0,-18"
       id="guide4091" />
    <sodipodi:guide
       position="3,19.000017"
       orientation="16,0"
       id="guide4093" />
    <sodipodi:guide
       position="3,3.0000174"
       orientation="0,16"
       id="guide4095" />
    <sodipodi:guide
       position="19,3.0000174"
       orientation="-16,0"
       id="guide4097" />
    <sodipodi:guide
       position="19,19.000017"
       orientation="0,-16"
       id="guide4099" />
    <inkscape:grid
       type="xygrid"
       id="grid4101" />
    <sodipodi:guide
       position="3,19.000017"
       orientation="16,0"
       id="guide4123" />
    <sodipodi:guide
       position="3,3.0000174"
       orientation="0,2.000001"
       id="guide4125" />
    <sodipodi:guide
       position="4,19.000017"
       orientation="-16,0"
       id="guide4127" />
    <sodipodi:guide
       position="5.000001,19.000017"
       orientation="0,-2.000001"
       id="guide4129" />
    <sodipodi:guide
       position="18,19.000017"
       orientation="16,0"
       id="guide4131" />
    <sodipodi:guide
       position="17,3.0000174"
       orientation="0,2"
       id="guide4133" />
    <sodipodi:guide
       position="19,3.0000174"
       orientation="-16,0"
       id="guide4135" />
    <sodipodi:guide
       position="19,19.000017"
       orientation="0,-2"
       id="guide4137" />
  </sodipodi:namedview>
  <metadata
     id="metadata7">
    <rdf:RDF>
      <cc:Work
         rdf:about="">
        <dc:format>image/svg+xml</dc:format>
        <dc:type
           rdf:resource="http://purl.org/dc/dcmitype/StillImage" />
        <dc:title />
      </cc:Work>
    </rdf:RDF>
  </metadata>
  <g
     inkscape:label="Capa 1"
     inkscape:groupmode="layer"
     id="layer1"
     transform="translate(0,-1030.3622)">
    <path
       style="fill:#666666;fill-opacity:1;stroke:none"
       d="M 4 2.9980469 L 4 3 L 4 5 L 6 5 L 6 3 L 8 3 L 8 5 L 10 5 L 10 3 L 12 3 L 12 5 L 14 5 L 14 3 L 16 3 L 16 5 L 18 5 L 18 3 L 18 2.9980469 L 17 2.9980469 L 5 2.9980469 L 4 2.9980469 z M 6 6 L 6 8 L 8 8 L 8 6 L 6 6 z M 10 6 L 10 8 L 12 8 L 12 6 L 10 6 z M 14 6 L 14 8 L 16 8 L 16 6 L 14 6 z M 4 9 L 4 11 L 4 19 L 5 19 L 13 19 L 14 19 L 14 18.990234 L 14.007812 19 L 18 15.007812 L 18 14.998047 L 18 13.591797 L 18 11 L 18 9 L 16 9 L 16 11 L 17 11 L 17 14 L 13 14 L 13 15 L 13 18 L 5 18 L 5 11 L 6 11 L 6 9 L 4 9 z M 8 9 L 8 11 L 10 11 L 10 9 L 8 9 z M 12 9 L 12 11 L 14 11 L 14 9 L 12 9 z "
       transform="translate(0,1030.3622)"
       id="rect4139" />
  </g>
</svg>
